icon-themes/sifr_svg/cmd/sc_convertformulatovalue.svg

<svg viewBox="0 0 16 16" xmlns="http://www.w3.org/2000/svg"><path d="m6 2c-1.656854 0-3 1.3431458-3 3v1l-2 1v1h2v3c0 .552285-.447715 1-1 1s-1-.447715-1-1h-1v2.220703c.531654.479085 1.227983.779297 2 .779297 1.656854 0 3-1.343146 3-3v-3l2-1v-1h-2v-1c0-.537224.370717-1 1-1 .552285 0 1 .4477153 1 1h1v-2.2207031c-.531654-.4790849-1.227984-.7792969-2-.7792969zm3 1v2h4c.552285 0 1 .4477153 1 1v1h-4c-1.6568542 0-3 1.343146-3 3s1.3431458 3 3 3h6v-7c0-1.6568542-1.343146-3-3-3zm1 6h4v2h-4c-.5522847 0-1-.447715-1-1s.4477153-1 1-1z" fill="#555753"/></svg>

<svg xmlns="http://www.w3.org/2000/svg" viewBox="0 0 16 16">
  <path
     style="fill:#555753"
     d="M 6 2 C 4.343146 2 3 3.3431458 3 5 L 3 6 L 1 7 L 1 8 L 3 8 L 3 11 C 3 11.552285 2.552285 12 2 12 C 1.447715 12 1 11.552285 1 11 L 0 11 L 0 13.220703 C 0.531654 13.699788 1.227983 14 2 14 C 3.656854 14 5 12.656854 5 11 L 5 8 L 7 7 L 7 6 L 5 6 L 5 5 C 5 4.462776 5.370717 4 6 4 C 6.552285 4 7 4.4477153 7 5 L 8 5 L 8 2.7792969 C 7.468346 2.300212 6.772016 2 6 2 z M 9 3 L 9 5 L 13 5 C 13.552285 5 14 5.4477153 14 6 L 14 7 L 10 7 C 8.3431458 7 7 8.343146 7 10 C 7 11.656854 8.3431458 13 10 13 L 16 13 L 16 6 C 16 4.3431458 14.656854 3 13 3 L 9 3 z M 10 9 L 14 9 L 14 11 L 10 11 C 9.4477153 11 9 10.552285 9 10 C 9 9.447715 9.4477153 9 10 9 z "
     />
</svg>
